X: 13267
T: Five Mile Chase, The
R: reel
M: 4/4
K: Gmajor
|:G2BG dGBG|FADA FADA|G2BG dGBd|egfa gedB|
G2BG dGBG|FADA FADA|G2BG dGBd|egfa g2 gf:|
|:gdBd edBd|gabg agef|gdBd edBd|egfa g3f|
gabg efge|dedc BGBd|efed edBd|egfa gedB:|

